X:1
T:Missa in hon. beati Ambrosii
T:Missa in hon. beati Ambrosii
T:Lorenzo Perosi
%%score [ 1 2 ] { ( 3 6 7 ) | ( 4 5 8 ) }
L:1/8
Q:1/4=210
M:4/2
K:G
V:1 treble nm="Frauen"
V:2 bass nm="Männer"
V:3 treble nm="MusicXML Part"
V:6 treble 
V:7 treble 
V:4 bass 
V:5 bass 
V:8 bass 
V:1
"^Moderato"!p! z4!<(! E8!<)! F4"^Kyrie" | G4 E4 G4 A4 | B8 B8- | B4 A2 G2 (F4 G4) | A8 (E8- | %5
w: Ky- ri-|e e- le- i-|son, Ky-|* rie e- lei- *|son, Ky-|
 E4 D2 E2 F2 G2) A4 |"^rall." B4 G4 E8 | !fermata!E16 ||[M:3/2][Q:1/4=222]"^Più mosso" z12 | z12 | %10
w: * * * * * ri-|e e- lei-|son.|||
 z4 B4 e4 | (d4 c2 B2) A4 | B8 z4 | z12 | z4 B4 B4 | B4 A8 | G12- |"^rall. molto" G4 F4 G4 | %18
w: Chri- ste|e- * * lei-|son,||Chri- ste|e- lei-|son,|* Chri- ste|
 (A2 B2 c2 B2 A2 G2) | A12 | !fermata!^G12 ||[Q:1/4=250]"^Con vita" z4 !>!e8 | d8 (B4 | %23
w: e- * * * * *|lei-|son.|Ky-|rie e-|
 ^c4) (B4 ^A4) | B8 z4 | z12 | z12 | !>!e12 | ^c4 (c4 e4 | d8) z4 | z4 B4 B4 | E8 F4 | (G8 F4) | %33
w: * lei- *|son,|||Ky-|rie e- lei-|son,|Ky- ri-|e e-|lei- *|
 E8 z4 | z12 | z12 | z12 |][M:4/2][Q:1/4=250]"^Con vita" z16"^Gloria" | z16 | z16 | z16 | %41
w: son.||||||||
 z4"^a tempo" B4 d6 ^c2 | B8 G4 B4 | e4 d4 c8 |!pp! B8"^rall." ^c8 | (^c4 e4) d4 B4 | (^A8 B8) | %47
w: Lau- da- mus|Te, be- ne-|di- ci- mus|Te, ad-|o- * ra- mus|Te. *|
 z16 | z16 | z16 | z4 !>!E8 G4 | F4 B4 A4 G4 | (G4 F4) G8 | F4 (D2 E2) (F2 G2 A4) | B4 d6 c2 B4 | %55
w: |||Gra- ti-|as a- gi- mus|Ti- * bi|prop- ter * mag- * *|nam glo- ri- am|
 A8 B8 | z16 | z16 | z16 | z16 | z16 | z16 | z8 !>!d6 d2 | G4 (B8 A2 G2) | F8 (E4 F4 | G4 A4 B8) | %66
w: Tu- am.|||||||Do- mi-|ne Fi- * *|li u- ni-|ge- ni- te,|
!pp! z8"^rall." e8- | e4 d4 c8 | (B12 G4 | F4 E8 ^D4) | E8"^a tempo" !>!A8- | A4 F4 G8 | z16 | %73
w: Je-|* * su|Chri- *||ste. Do-|* mi- ne||
 z4 B8 A4 | (G4 F4) E8 | z8 z4 (e4- | e4 d4) c4"^rall." B4 | A16 | !fermata!^G16 || %79
w: Ag- nus|De- * i,|Fi-|* * li- us|Pat-|ris.|
[Q:1/4=190]"^Più adagio" z8 A8 | d8 G4 B4- | B4 A8 G4 | F8 G8 | z16 | z16 | z16 | z16 | z8 A8 | %88
w: Qui|tol- lis pec-|* ca- ta|mun- di.|||||Qui|
 d8 G4 B4 | !^!B4 A4 G8 |"^cresc." F8 z8 | z4 !>!d8 G4 | c16 | B4 A4 G4 E4 | G8 F8 | (E12 ^D4) | %96
w: tol- lis pec-|ca- ta mun-|di:|sus- ci-|pe|de- pre- ca- ti-|o- nem|nost- *|
 E16 |[Q:1/4=206]"^Un poco più mosso" z16 | z16 | z16 | z16 | z16 |!pp! z4 G8!>(! F4 | %103
w: ram.||||||mi- se-|
 E4 B,4!>)! (D8 | C8 B,8- | B,16) | !fermata!B,16 ||[Q:1/4=250]"^Con vita" z16 | B6 B2 ^G4 A4 | %109
w: re- re no-|||bis.||Quo- ni- am Tu|
 B4 ^c4 d4 c4 | e8 ^c4 d4 | (^c4 B8) ^A4 | B8"^rall. molto" z8 | z16 | %114
w: so- lus Sanc- tus|Tu so- lus|Do- * mi-|nus,||
[Q:1/4=160]"^Adagio"!pp! z8 (E8- | E4 A2 B2 c2 B2 A4- | A4) E4 G8 | !fermata!F16 || %118
w: Je-||* su Chri-|ste.|
[M:3/2][Q:1/4=258]"^Vivo" (B4 ^G4 A4 | B8 c4 | A8) z4 | z12 | (e4 d4 c4 | e8) !^!B4 | ^A4 (B8- | %125
w: Cum Sanc- to|Spi- ri-|tu||in glo- ri-|a De-|i Pat-|
 B4 ^A2 ^G2 A4) | B8 z4 | z8 (!>!B4- | B4"^rall." G4) F4 | (A8 G4- | G4 F2 E2 F4) | %131
w: |ris,|De-|* * i|Pat- *||
!f! E8"^affrettato" (E4- |!<(! E2 F2 G2 A2 B2!<)! ^c2) | d12 | %134
w: ris, a-||men,|
!ff!"^rall. molto" (c2 B2 A2 B2 c2 d2 | !tenuto!.e4 !tenuto!.d4 !tenuto!.c4) | !fermata!B12 |] %137
w: a- * * * * *||men.|
[M:4/2][Q:1/4=160]"^Adagio""^Rito Ambrosiano" ^G8 B4 e4 | ^d4 ^c4 B8- | B4 ^G4 A8- | A4 F4 G4 F4- | %141
w: Ky- * ri-|e e- lei-|* son, Ky-|* rie e- lei-|
 F4 E4 D4 C4 | B,8 D8 | E16 | B,16 |][Q:1/4=206]"^Moderato" z4 ^G4 A4 B4"^Credo" | c4 B4 A8 | %147
w: * son, Ky- rie|e- lei-||son.|Pat- rem om-|ni- po- ten-|
 ^G8 A4 ^c4- | c4 e4 d4 ^c2 B2 | (B4 ^A4) B8 | B4 G4 A6 A2 | B4 A8 A4 | ^G8 A6 A2 | (E4 G4 F4) E4 | %154
w: tem, fac- to-|* rem coe- li et|ter- * rae,|vi- si- bi- li-|um om- ni-|um, et in-|vi- * * si-|
 (D4 E2 F2 G2 A2 B2 c2 | B8) A8 | A8 z8 | z16 | z16 | z16 | z16 | z16 |"^a tempo" z16 | z16 | z16 | %165
w: bi- * * * * * *|* li-|um,|||||||||
 B6 B2 G4 F4 | (E4 e8) d4 | c4 B4 A4 B2 c2 | B6 A2 G8 | z4 A4 F4 G4 | F6 E2 D4 (G4- | %171
w: et ex Pat- re|na- * tum|an- te om- ni- a|sae- cu- la,|De- um de|De- * o, lu-|
 G4 F2 E2) D4"^rall." d4 | (c4 B4 A4 G4- | G4) F4 G8 |"^a tempo" A4 A4 B8 | ^G8 z8 | z16"^rall." | %177
w: * * * men de|lu- * * *|* mi- ne,|De- um ve-|rum.||
 z16 | z16 |"^a tempo" B12 ^c4 | d4 d4 ^c8 | B8 z8 | z16 | z8 E4 F4 | G4 A4 B8 | A4 (c6 B2 A4) | %186
w: ||Ge- ni-|tum non fac-|tum,||con- sub-|stan- ti- a-|lem Pat- * *|
 ^G8 A4 E4 | F4 A4 B8 | z8 z4 (B4 |"^rall." c4) (e4 d4 c2 B2 | A8) B8 | %191
w: ri, per quem|om- ni- a|fac-|* ta- * * *|* sunt.|
[Q:1/4=230]"^un poco meno"!p! z4 (B4 d4 c4 | B8) A4 A4 | B8 G4 F4- | F4 E4 G4 F4 | E4 (E8 ^D4) | %196
w: Qui prop- ter|nos ho- mi-|nes et prop-|* ter nost- ram|sa- lu- *|
 E8 z8 | z16 | z8 !>!A8 | F4 D4!>(! G8 | (F8 E8 | D16)!>)! | E16- | !fermata!E16 || %204
w: tem||des-|cen- dit de|coe- *||lis.||
[Q:1/4=160]"^Adagio"!pp! z8 B8 | d12 ^c4 | B4 A4 G8 | z8 E4!<(! G4-!<)! | G4 F4 E8- | E4 ^D4 E8 | %210
w: Et|in- car-|na- tus est|de Spi-|* ri- tu|* Sanc- to,|
 z4 e8 e4 | d4 d4 ^c6 c2 |!pp! B8 B8 | (d6 ^c2 B4 A4) | G8 F8- | F8 F8 | !fermata!E16 || %217
w: ex Ma-|ri- a vir- gi-|ne et|ho- * * *|mo fac-|* rus|est.|
[Q:1/4=222]"^Più mosso" z4 B6 B2 B4 | A4!<(! B6 c2!<)! A4 | B4!>(! c8!>)! B4 | z4 A8 ^G4- | %221
w: Cru- ci- fi-|xs e- ti- am|pro no- bis|sub Pon-|
 G2 A2 F4 =G4 (E4- | E4 G8) (F4 | A4) z4 z4!<(! (F4 | B4!<)! d8) c4 |!>(! (B2 A2) (G2!>)! F2) E8- | %226
w: * ti- o Pi- la-|* * to,|* pas-|* * sus|et * se- * pul-|
 E4 ^D4 !fermata!E8 ||[Q:1/4=258]"^Vivo"!f! z4 e4 ^c6 d2 | e4 A4 B4 (d4- | d2 ^c2) B8 ^A4 | %230
w: * tus est.|Et re- sur-|re- xit ter- ti-|* * a di-|
 B4 F4 (G4 A4) | B4 c8 (B4- | B4 A2 ^G2 A8) | ^G8 z8 | z16 | z16 | z16 | z16 | z8 B8 | %239
w: e se- cun- *|dum scrip- tu-||ras,|||||et|
 ^G6 G2 F4 G4 | A4 B4 A4 d4 | !^!c4 A4 B4 z4 | z8 z4 (G4 | F4) D4 (E4 e4- | e2 d2) c4 (B6 A2 | %245
w: i- te- rum ven-|tu- rus est cum|glo- ri- a|ju-|* di- ca- *|* * re vi- *|
 G4 E4) F8 |!pp!"^rall." D8 (C6 B,2) | A,8 ^G,8 |"^a tempo" z16 | z16 | z16 | z16 || %252
w: * * vos|et mor- *|tu- os.|||||
[M:3/2]!mf! z4 (d4 d4 | B8 B4 | d4 A4 B4 | c4 c8 | B8) z4 | z4 (B4 B4 | E4 (F4 G4) | (G4 F8) | %260
w: Et in|Spi- ri-|tum Sanc- tum|Do- mi-|num|et vi-|vi- fi- *|can- *|
 G8) z4 | z12 | z12 | z12 | z12 | z12 | z12 | z4 A4 d4 | (B4 c8) | B8 B4 | e8 d4 | c4 B4 A4 | %272
w: tem,|||||||qui cum|Pat- *|re et|Fi- li-|o si- mul|
 G4 G8 | c12 | B8 z4 | z12 | z12 | z8 B4 | B4 G4 E4 | F4 A8 | (G2 A2"^rall." B2 c2 B4- | %281
w: ad- o-|ra-|tur,|||qui|lo- cu- tus|est per|pro- * * * *|
 B4 A4 G2 A2) | G4 F8 | E8 z4 ||[M:4/2][Q:1/4=160]"^Adagio" z4 ^G4 B4 G4 |!pp! E8 !fermata!^G8 | %286
w: |phe- *|tas.|Et u- nam|sanc- tam|
 z4!<(! A4 (F2 ^G2 A4-!<)! | A4) ^G4 !fermata!A8 | z4 ^c4 (d2 c2 B2) A2 | G4 A4 B8 | c8 B4 A4 | %291
w: ca- tho- * *|* li- cam|et a- * * po-|sto- li- cam|ec- cle- si-|
 G8 z8 | z16 | z16 ||[M:3/2][Q:1/4=206]"^Tempo I" z12 | z12 | z12 | z12 | z12 | z8 E4 | G4 G4 A4 | %301
w: am.||||||||in|re- mis- si-|
 B8 c4 | A4 (G4 F4) | (E8 F4 |"^rall." ^G4 F2 E2 ^D4) | E12 | z4 !>!e4 e4 | (d4 ^c4 B4) | ^A8 z4 | %309
w: o- nem|pec- ca- *|to- *||rum,|et ex-|pec- * *|to|
 z4 F4 B4 |"^rall." (d4 B4) (G2 A2) | (B4 G4) E4 | G8 F4 | (E4 D4 C4) | B,8 z4 | z12 | z12 | %317
w: re- sur-|rec- * ti- *|o- * nem|mor- tu-|o- * *|rum.|||
[Q:1/4=250]"^Con vita" z12 | z4 z4 F4 | A8 A4 | B4 d4 ^c4 | (B4 A2 G2) A4 | ^G8 z4 | z4 A4 A4 | %324
w: |Et|vi- tam|ven- tu- ri|sae- * * cu-|li,|a- men,|
 (F8"^rall. molto" B2 A2 | G2 A2 B8) | ^G12 |] %327
w: a- * *||men.|
[M:4/2][Q:1/4=160]"^Adagio" z8!<(! (B8-!<)!"^Sanctus" |!>(!!>(! B4 A2!>)! G2) F8!>)! | z16 | z16 | %331
w: Sanc-|* * * tus,|||
 z8 E8- | E4 B,4 E6 F2 | G8 A8 | B8 z8 | z16 | z4 !>!B4 B4 A4 | (G4 E2 F2 ^G2 A2 B4 | %338
w: Sanc-|* tus Do- mi-|nus De-|us.||Ple- ni sunt|coe- * * * * *|
 c2 d2 e8) B4 | ^A4 (B4 G4 F2 E2) | D4 (d4 B6) A2 |"^rall." (G4 B4) (c8 | B2 A2 G4!>(! F8)!>)! | %343
w: * * * li|et- ter- * * *|ra glo- * ri-|a * Tu-||
 E8 z8 ||[Q:1/4=196]"^Lento"!pp! z8!<(! B8 | (!>!B8!<)! ^G8) | E4 e4 (^d4 ^c4) | (B12 A2!>(! G2 | %348
w: a.|Ho-|san- *|na in ex- *|cel- * *|
 F16)!>)! | E16 |]!p! z4"^dolce"!<(! A8!<)! ^c4"^Benedictus" |!>(!!>(! e8!>)! d8!>)! | %352
w: |sis.|Be- ne-|dic- tus,|
 z4 ^c4 (d4 B4- | B4 ^A4) B4 B4 | B8 A8 | G4 (!>!G8 F2 G2 | A4 E8)"^rall." ^D4 | %357
w: qui ve- *|* * nit in|no- mi-|ne Do- * *|* * mi-|
 E8"^come prima" z8 |][Q:1/4=210]"^Andante"!p! z8 B8"^(Canone)" | c8 (B6 A2) | G4 (F2 E2) F4 B4 | %361
w: ni.|Ag-|nus De- *|i, qui * tol- lis|
 E8 E4 D4 | C8 B,8 | z16 | (B4 B4 c4 (B2 A2) | (G4 F4) E4) z4 | z16 | z8 E4 F4 | (G8 c8) | B12 A4 | %370
w: pec- ca- ta|mun- di:||mi- se- re- re *|no- * bis.||Ag- nus|De- *|i, qui|
 (G4 F2 E2) D8 | D4 !>!d8 c4 | (B8 A8) | G8 z8 | z8 (!>!B6 B2 | (A4 F4) G8) | z8 (!>!e6 e2 | %377
w: tol- * * lis|pec- ca- ta|mun- *|di:|mi- se-|re- * re,|mi- se-|
 d4 B4 c8 | B8)"^rall." z8 | z16 |"^a tempo" z8 e8 | d4 (B8 A4) | B8 c8 | (B4 G8 F2 E2) | %384
w: re- re no-|bis.||Ag-|nus De- *|i, qui|tol- * * *|
 ^D4 E4 A8- |!>(! A4 G4 F8!>)! | E8 z8 | z16 |!pp!"^rall. molto" (e6 d2 ^c4 A2 B2 | %389
w: lis pec- ca-|* ta mun-|di:||do- na no- bis *|
 ^c2 d2 e4- e2 d2 c2 B2 | A6 G2 F4 E4 | F8) z8 | z16 | z8 (!>!B6 A2 | ^G4 E2 F2 G2 A2 B4- | %395
w: pa- * * * * * *||cem,||do- na|no- bis * pa- * *|
 B2 A2 ^G2 F2 E6 ^D2 | ^C4) (!breath!^c8 B4 |!>(! A12 ^G4!>)! |"^lento" F8 E8) | z16 |] %400
w: |||* cem.||
V:2
 z16 |!p! z4 E,8 F,4 | G,4 E,4 G,4 A,4 | B,4 E8 D4 | C4 B,4 A,6 G,2 | F,8 z8 | z16 | z16 || %8
w: |Ky- ri-|e e- le- i-|son, Ky- ri-|e e- le- i-|son.|||
[M:3/2] z4 B,4 D4 | (B,4 A,2 G,2 F,4) | G,4 E,8 | z12 | z4 !>!B,4 B,4 | B,4 A,8 | G,8 z4 | z12 | %16
w: Chri- ste|e- * * *|lei- son,||Chri- ste|e- lei-|son,||
 z4 E4 E4 | E4 D8 | (C2 D2 E2 D2 C2 B,2 | C4 B,4 A,4) | !fermata!B,12 || z12 | z12 | z12 | %24
w: Chri- ste|e- lei-|||son.||||
 !>!E,12 | B,8 B,4 | (A,4 G,4 F,4) | E,8 z4 | z12 | z4 F,4 F,4 | G,8 B,4 | (C4 B,4) A,4 | %32
w: Ky-|rie e-|lei- * *|son,||Ky- ri-|e e-|le- * i-|
 G,4 B,8- | B,4"^rall. molto" A,8- | A,4 (G,4 F,2 E,2) | F,12 | E,12 |][M:4/2] !>!B,6 B,2 A,4 B,4 | %38
w: son, Ky-|* rie|* e- * *|lei-|son.|Et in ter- ra|
 C4 A,4 B,6 B,2 | A,8 ^C4 E4 |"^rall." D4 D4 ^C8 | B,8 z8 | z4 B,4 (E6 D2) | C4 B,4 A,8 | %44
w: pax ho- mi- ni-|bus bo- nae|vo- lun- ta-|tis.|be- ne- *|di- ci- mus|
!pp! ^G,8"^rall." A,8 | (A,4 G,4) F,4 D,4 | (^C,8 B,,8) |!f! z4!<(! F,4 G,4!<)! A,4 | B,4 C4 B,8 | %49
w: Te, ad-|o- * ra- mus|Te, *|glo- ri- fi-|ca- mus Te.|
 z16 | z16 | z16 | z16 | z16 | z16 | z16 | !>!D8 A,4 A,4 | (B,4 A,2 G,2) F,8 | E,4 G,4 C8 | %59
w: |||||||Do- mi- ne|De- * * us,|Rex coe- les-|
 B,8 E8- | E4 D4 C4 B,4 | A,4 G,8 F,4 | G,8 z8 | z16 | z16 | z16 |!pp! z8 C8- | C4 B,4 A,8 | %68
w: tis, De-|* us Pa- ter|om- ni- po-|tens.||||Je-|* * su|
 (G,2 A,2 B,2 C2 B,4 E,4 | ^D,4 E,4 F,8) | E,8 z8 | z16 | A,12 F,4 | G,8 z8 | z4 B,8 A,4 | %75
w: Chri- * * * * *||ste.||De- *|us,|Ag- nus|
 (G,4 F,4) E,8 | z8 z4 E4- | E4!>(! D4 C4 (B,2!>)! A,2) | !fermata!B,16 || ^C16 | D12 D4 | %81
w: De- * i,|Fi-|* li- us Pat- *|ris.|Qui|tol- lis|
 D4 C8 B,4 | A,8 B,8 | B,6 B,2 E4 ^C4 | (D12!>(! ^C4- | C4 B,4!>)! ^A,8) | B,8 z8 | z16 | z16 | %89
w: pec- ca- ta|mun- di:|mi- se- re- re|no- *||bis.|||
 z16 | z4"^cresc." !>!D8 G,4 | C8 B,8- | B,4 B,4 A,4 G,4 | F,8 E,8 | z4 (E,8 D,4 | A,6 G,2 F,8) | %96
w: |sus- ci-|pe de-|* pre- ca- ti-|o- nem|nost- *||
 E,16 | z4 A,4 A,8 |!<(! F,4 D,4 D6!<)! C2 | B,4 (B,6!>(! A,2 G,4-!>)! | G,4 F,4) G,8 | %101
w: ram.|Qui se-|des ad dex- te-|ram Pat- * *|* * ris:|
!pp! z4 G,8 F,4 | E,8 B,,8 | z16 | z16 | z16 | z16 || z16 | z16 | z16 | z16 | z16 | z8 B,8 | %113
w: mi- se-|re- re.||||||||||Tu|
!<(! F,4 B,2!<)! ^C2 D4 B,4 | (E12 D4) |!pp! (C6 D2 E2 D2 C2 B,2) | C8 B,8 | !fermata!B,16 || %118
w: so- lus Al- tis- si-|mus, *|Je- * * * * *|su Chri-|ste.|
[M:3/2] z12 | z12 | (D4 A,4 B,4 | C4 D8 | C8) z4 | z12 | z12 | z12 | z8 !>!B,4- | B,4 A,4 G,4 | %128
w: ||Cum Sanc- to|Spi- ri-|tu||||in|* glo- ri-|
 B,8 D4 | (C4 B,4 E,4- | E,4 ^D,2 ^C,2 D,4) | E,8 z4 |!f! (E,12 | %133
w: a De-|* i Pat-||ris,|a-|
 F,2!<(! E,2 D,2 E,2 F,2!<)! G,2) |!ff! A,4 (A,6 B,2 | !tenuto!.C4 !tenuto!.B,4 !tenuto!.A,4) | %136
w: |men, a- *||
 !fermata!^G,12 |][M:4/2] z16 | z8 z4 B,4- | B,4 E6 D2 C4 | D4 A,4 B,4 A,4- | A,4 G,4 z8 | %142
w: men.||Ky-|* * * rie|e- * * lei-|* son,|
 z4 B,,8 B,4- | B,4 A,2 G,2 A,8 | G,16 |] z16 | z16 | z16 | z16 | z16 | z16 | z16 | z16 | z16 | %154
w: Ky- rie|* e- * lei-|son.||||||||||
 z16 | z16 | z16 | z4 E,4 G,4 B,4- | B,4 C4 D4 A,4 |!pp! B,8 (B,4 ^C4) |"^rall." D8 (E8- | %161
w: |||et in u-|* num Do- mi-|num Je- *|sum Chri-|
 E8 A,8) | ^G,8 A,4 ^C2 E2 | ^C4 B,4 D4 C4 | B,4 ^A,4 B,8 | z16 | z16 | z16 | z8 E4 E2 D2 | %169
w: |stum Fi- li- um|De- i u- nu-|ge- ni- tum,||||De- um de|
 (^C8 D4 B,4- | B,4 ^A,4) B,4 (B,4- | B,4 A,2 G,2) F,4 D,4 | (E,4 G,4 C4 B,4) | A,8 B,8 | z16 | %175
w: De- * *|* * o, lu-|* * * men *|lu- * * *|mi- ne,||
 B,4 B,4 C8 | B,4 A,4 (G,4 F,2) E,2 | (A,6 G,2 F,8) | E,8 z8 | z16 | z16 | B,12 ^C4 | D4 D4 ^C8 | %183
w: De- um ve-|rum de De- * o|ve- * *|ro.|||Ge- ni-|tum non fac-|
 B,8 z8 | z16 | z16 | z16 | z8 D4 G,4 | B,4 D4 (E8- | E2 D2 C4) (B,4 A,2 G,2) | (G,4 F,4) G,8 | %191
w: tum,||||per quem|om- ni- a|* * * fac- * *|ta * sunt.|
!p! z4 D4 B,4 A,4 | G,8 G,4 F,4 | G,8 B,4 A,4- | A,4 C4 B,4 B,4 | B,4 (A,2 G,2 F,8) | E,8 A,8 | %197
w: Qui prop- ter|nos ho- mi-|nes et prop-|* ter nost- ram|sa- lu- * *|tem des-|
 F,4 D,4 G,8 | F,8 E,8 | z16 | z16 | z16 | z16 | z16 ||!pp! B,16 | B,4 F,4 B,4 ^C4 | %206
w: cem- dit de|coe- lis.||||||Et|in- car- na- tus|
 D8 z4!<(! B,4!<)! | C12 B,4 | E,4 (A,4- A,2 G,2 F,2 E,2 | F,8) E,8 | z16 | z16 | z16 | %213
w: est de|Spi- ri-|tu Sanc- * * * *|* to,||||
!pp! B,8 (D6 ^C2 | B,4) E,4 (E,4 ^D,2 ^C,2) | ^D,16 | !fermata!E,16 || z16 | z16 | z16 | z16 | %221
w: et ho- *|* mo fac- * *|tus|est.|||||
 z16 | z16 |!<(! F,4 A,4!<)! B,4 (D4- | D2 ^C2 B,2 A,2 G,2 F,2) (E,4- | E,4 B,8 A,2 G,2) | %226
w: ||pas- sus et se-|* * * * * * pul-||
 F,8 !fermata!E,8 || z16 | z16 | z16 | z16 | z16 | z16 | z4 B,4 ^G,4 !^!A,4 | B,4 ^C4 (D4 A,4) | %235
w: tus est.|||||||et as- cen-|dit in coe- *|
 B,4 D6 C2 B,4 | A,4 B,4 C4 (C4- | C4 B,4 A,8) | ^G,8 z8 | z16 | z16 | z8 z4 D4 | %242
w: lum, se- det ad|dex- te- ram Pat-||ris,|||cum|
 !^!C4 A,4 B,4 C4 | D8 (C8- | C2 B,2) A,4 (G,2 A,2 B,2 C2 | B,4 ^C4) D8 |!pp! z4 B,4 (A,4 E,4- | %247
w: glo- ri- a ju-|di- ca-|* * re vi- * * *|* * vos|et mor- *|
!f! E,4) ^D,4 E,4 B,4- | B,4 B,4 D4 A,4 | B,4 G,8 F,4 | E,8 G,8 | z16 ||[M:3/2] z12 | z12 | z12 | %255
w: * tu- os, cu-|* jus reg- ni|non e- rit|fi- nis.|||||
 z12 |!mf! z4 B,4 B,4 | G,8 B,4 | (C8 B,4 | A,6 G,2 A,4) | G,4 B,4 C4 | D8 D4 | D4 (C4 B,4) | %263
w: |et vi-|vi- fi-|can- *||tem, qui ex|Pat- re|Fi- li- *|
 A,8 D4 | G,4 (B,8- | B,4 A,4 G,4) | A,8 z4 | z12 | z12 | z12 | z12 | z12 | z12 | z12 | %274
w: o- que|pro- ce-||dit,||||||||
 z4 B,4 B,4 | B,4 E4 D4 | (A,4 C8) | B,8 z4 | z12 | z12 | z12 | z12 | z12 | z12 || %284
w: et con-|glo- ri- fi-|ca- *|tur.|||||||
[M:4/2] z4 B,4 ^G,4 B,4 |!pp! ^C8 !fermata!B,8 | z4 ^C4!<(! (D6 C2!<)! | B,4) B,4 !fermata!^C8 | %288
w: Et u- nam|sanc- tam|ca- tho- *|* li- cam|
 z4 ^A,4 (B,2 ^C2 D2) C2 | (B,4 E,8) ^D,4 | E,4 (E6 D2 C4) | B,12 E,4 | F,8 z8 | z16 || %294
w: et a- * * po-|sto- * li-|cam ec- * *|cle- si-|am.||
[M:3/2] z8 B,4 | C12 | D12 | E4 D4 C4 | C4 (B,2 A,2 B,4) | C12 | B,8 A,4 | G,8 A,4 | %302
w: Con-|fi-|te-|or u- num|bap- tis- * *|ma|in re-|mis- si-|
 F,4 (B,4 A,4) | G,8 A,4 | (B,4 A,2 ^G,2 F,4) | E,12 | z12 | z12 | z4 !>!^C4 C4 | D8 D4 | %310
w: o- nem *|pec- ca-|to- * * *|rum,|||re- sur-|rec- ti-|
 (B,4 D4 B,2 A,2 | G,4 B,4 G,2 F,2) | E,8 z4 | z12 | z4 G,4 F,4 | (E,4 D,4 C,4) | B,,12 | z12 | %318
w: o- * * *||nem||mor- tu-|o- * *|rum.||
 z12 | z12 | z12 | z12 | z4 !>!E4 E4 | (^C12 | D2 ^C2 B,2 A,2 G,2 F,2 | E,8 ^D,4) | E,12 |] %327
w: ||||A- men,|a-|||men.|
[M:4/2] z16 | z16 | z8!<(! (A,8-!<)! |!>(! A,4 G,2!>)! F,2) E,8 | z16 | z16 | z16 | z8 B,4 C4 | %335
w: ||Sanc-|* * * tus,||||De- us|
 (D4 C2 B,2) A,8 | B,8 z8 | z4 E4 E4 D4 | (C4 A,2 B,2 C2 D2 E4- | E4) D2 ^C2 (B,4 ^A,4) | %340
w: Sa- * * ba-|oth.|Ple- ni sunt|coe- * * * * *|* li et ter- *|
 B,8 z4 (D4 | B,6) A,2 (G,4 A,2 G,2) | (F,4 E,8!>(! ^D,4)!>)! | E,8 z8 ||!pp! z8!<(! B,8 | %345
w: ra glo-|* ri- a * *|Tu- * *|a.|Ho-|
 (!>!B,8!<)! ^G,8) | E,4 E4 (^D4 ^C4) | (B,12 A,2!>(! G,2 | F,16)!>)! | E,16 |] z16 | z16 | z16 | %353
w: san- *|na in ex- *|cel- * *||sis.||||
 z16 | z16 | z16 | z16 | z16 |] z16 |!p! z8 B,8 | C8 (B,6 A,2) | G,4 (F,2 E,2) F,4 B,4 | %362
w: ||||||Ag-|nus De- *|i, qui * tol- lis|
 E,8 E,4 D,4 | C,8 B,,8 | z16 | B,4 B,4 C4 (B,2 A,2) | (G,4 F,4) E,4 z4 | z16 | z8 E,4 F,4 | %369
w: pec- ca- ta|mun- di:||mi- se- re- re *|no- * bis.||Ag- nus|
 (G,8 C8) | B,12 A,4 | (G,4 F,2 E,2) D,8 | D,4 !>!D8 C4 | (B,8!>(! A,8)!>)! | G,8 z8 | %375
w: De- *|i, qui|tol- * * lis|pec- ca- ta|mun- *|di:|
 z8 (!>!B,6 B,2 | (A,4 F,4) G,8) | z8 !>!E6 E2 | D4 B,4 C8 | B,8 z8 | z16 | z8 E8 | D4 (B,8 A,4) | %383
w: mi- se-|re- * re,|mi- se-|re- re no-|bis.||Ag-|nus De- *|
 B,8 C8 | (B,4 G,8 F,2 E,2) | ^D,4 E,4 A,8- |!>(! A,4 G,4 F,8!>)! | E,8 z8 | z16 | %389
w: i, qui|tol- * * *|lis pec- ca-|* ta mun-|di:||
 (E6 D2 ^C4 A,2 B,2 | ^C2 D2 E4- E2 D2 C2 B,2 | A,6 G,2 F,4 E,4 | F,8) z8 | z16 | z8 (!>!B,6 A,2 | %395
w: do- na no- bis *|pa- * * * * * *||cem,||do- na|
 ^G,4 (E,2 F,2) G,2 A,2 B,4- | B,2 A,2 ^G,2 F,2 E,6 ^D,2 | ^C,4) (!breath!^C8 B,4 | A,12 ^G,4 | %399
w: no- bis * pa- * *||||
"^lentissimo" F,8 !fermata!E,8) |] %400
w: * cem.|
V:3
!p! [G,E]12 [A,F]4 | [B,G]4 [G,E]4 G4 A4 | B16 | B4 A2 G2 F4 G4 | A8 E8- | E4 D2 E2 F2 G2 A4 | %6
"^rall." B4 G4 E8- | !fermata!E16 ||[M:3/2] D12- | D12 | [G,E]8 [B,G]4 | %11
 [DB]4 [CA]2 [B,G]2 [A,F]4 | [B,G]12- | [B,G]4 [A,F]8 | [G,E-]8 [EGB]4 | [GB]4 [FA]8 | [EG]12- | %17
"^rall. molto" [EG]4 F4 G4 | ([CA]2 [DB]2 [Ec]2 [DB]2 [CA]2 [B,G]2 | A12) | !fermata!^G12 || %21
 A4 ^c8 | d4 B4 d4 | ^c4 B4 ^A4 | B4 G8- | G4 F4 G4 | [CE]8 ^D4 | [G,E]4 [A,F]4 [B,G]4 | A8 G4 | %29
 [DF]12 | [B,G]8 [DF]4 | E8 F4 | G8 F4 | E12- | E12- | E4 ^D2 ^C2 D4 | E12 |][M:4/2] ^G8 F4 G4 | %38
 A12 ^G4 | A8 G8 |"^rall." [DF]8 [^CE]8 | [B,D]8 [B,DF]8 | [B,E-G]16 | [CEA]16 | %44
 [B,E^G]8 [^CE-A]8 | [EA]4 G4 [DF]8 | [^CE]8 D8 | [^DF]8 [EG]4 [FA]4 | B4 c4 B8 | A12 E4 | E16 | %51
 F4 B4 A4 G4 | G4 F4 G8 | F16 | G4 B6 A2 G4- | G4 F4 G8 | F16 | G8 F8 | E4 G4 c8 | B8 e8- | %60
 e4 d4 c4 B4 | A4 G8 F4 | G16 | G4 [GB]8 [FA]2 [EG]2 | [^DF]8 E4 F4 | G4 A4 B8 |"^rall." [CEA]16- | %67
 [CEA]16 | [B,EG]16 | [^DF]4 E8 D4 | E8 !>!E8- | E4 [^DF]4 [EG]8 | [^CA]12 F4 | E4 B8 A4 | %74
 G4 F4 E8- | E4 F4 ^G4 B4 | A4 B4"^rall." c8- | c4 B4 A8 | !fermata!^G16 || A16 | F8 G4 d4- | %81
 d4 c8 B4 | A8 B8- | B6 A2 G8 | F12 E4 | D8 ^C8 | D8 E8- | E16 | F8 G4 B4- | B4 A4 G8 | F8 G4 d4 | %91
 c8 B8 | c16 | B4 A4 G4 E4 | G8 F8 | E12 ^D4 | E16 | ^C16 | D8 d6 c2 | B8- B2 A2 G4- | G4 F4 G8- | %101
 G16- | G16 | G8 D8 | E16- | E8 !tenuto!.^D4 !tenuto!.^C4 | !fermata!^D16 || z8 B8- | %108
 [^GB]8 [EG]4 [EA]4 | [GB]4 ^c4 [A-d]4 [Ac]4 | e8 ^c4 d4 | ^c4 B8 ^A4 |"^rall. molto" [DFB]16- | %113
 [DFB]16 | [EG]4 [FA]4 [GB]8 | A6 B2 c2 B2 A4- | A8 G8 | !fermata!F16 ||[M:3/2] ^G8 A4 | B8 c4 | %120
 A12- | A4 B8 | A4 B4 A4 | c8 B4 | ^A4 B8- | B4 ^A2 ^G2 A4 | B12- | B4 A4 G4 |"^rall." B8 F4 | %129
 A4 G8- | G4 F2 E2 F4 | E8"^affrettato" G4- | G2 A2 B4 G4 | F12 |"^rall. molto" A4- A6 B2 | %135
 !tenuto!.c4 !tenuto!.B4 !tenuto!.A4 | !fermata!^G12 |][M:4/2] [B,^G-]8 [GB]4 [Ae]4 | %138
 [B^d]4 [A^c]4 [^^FB]8 | B8 c2 B2 A4 | [FA]8 G4 F4 | E8 D4 C4 | B,8 D8 | E16- | E16 |] ^G8 A4 B4 | %146
 c4 B4 A8 | ^G8 A8 | G8 F4 E2 D2 | ^C8 D6 E2 | F4 G4 A8 | B4 A8 A4 | ^G8 A8 | E4 G4 F4 E4 | %154
 D4 E2 F2 G2 A2 B2 c2 | B8 A8- | A4 c2 B2 A4 E4- | E8 G4 B4- | B4 c4 d4 A4 | B12 ^c4 | %160
"_rall." d8 e8- | e4 d4 c8 | B8 ^c8 | ^c4 B4 d4 c4 | B4 ^A4 [FB]8- | [FB]8 G4 F4 | E4 e8 d4 | %167
 c4 B4 A4 B2 c2 | B6 A2 G8 | A8 F4 G4 | F6 E2 D4 G4 | G4 F2 E2"^rall." D8 | E16 | A,8 B,8 | %174
 A,8 B,8- | B,4 E8 F4 | G4"^rall." F4 E4 D4 | C4 E8 ^D4 | E8 ^G4 A4 |"^a tempo" B12 ^c4 | d8 ^c8 | %181
 B12 A2 G2 | F8 E8 | D8 E4 F4 | G4 A4 B8 | A4 c6 B2 A4 | ^G8 A4 E4 | F4 A4 B8- | B4 A4 G8- | %189
"^rall." G4 F4 G4 A4 | E4 D4- D8 | G16- | G4 F4 E4 F4 | D8 G4 F4- | F4 E4 G4 F4 | E12 ^D4 | %196
 E8 ^C8 | D8 B,8 | A,6 B,2 ^C8 | D8 [D-G]8 | F8 E8 | D16 | [CE]16 | !fermata![B,E]16 || D16- | %205
 D16- | D8 E8- | E16 | G4 F4 E8- | E4 ^D4 E8 | [EG]16 | [DF]8 [^CE]8 | [B,D-]16 | [DF]16 | %214
 [EG]4 E8 ^D2 ^C2 | ^D16 | !fermata!E16 || B16 | [FA]4 B6 c2 A4 | B4 c8 B4 | A12 ^G4- | %221
 G2 A2 F4 =G4 E4- | E4 G8 F4- | F4 D12 | [DF]12 [CE]4 | [EG]6 [DF]2 [CE-]8 | E4 ^D4 !fermata!E8 || %227
 ^C16- | C4 [^CE]4 [DG]4 [DF-]4 | [DF-]2 [^CE]2 D4 C8 | [B,^D]4 [DF]4 [EG]4 [FA]4 | B4 c8 B4 | %232
 B4 A2 ^G2 A8 | ^G8 B8- | B4 ^c4 d4 A4 | B4 d6 c2 B4 | A4 B4 c8- | c4 B4 A8 | ^G16- | %239
 [EG]8 [^DF]4 [E^G]4 | [FA]4 [GB]4 [FA]4 [Gd]4 | [Ac]4 [FA]4 [GB]4 x4 | z16 | D8 C8- | %244
 C4 D4 E2 F2 G2 A2 | G4 E4 F8 |"^rall." G6 F2 E8 | F8 ^A,8 | G8 A8 | B8 d8- | d4 c8 B4 | [DA-]16 || %252
[M:3/2] [D-FA]12 | [DGB]8 [Gc]4 | d4 A4 B4 | c12 | B12 | e8 d4 | c4 F4 G4- | A6 B2 c4 | %260
 [GB]4 [Bd]4 [Ac]4 | [GB]4 [CA]4 [B,DG]4 | [DF]4 [EA]4 [DB]4 | c4 B4 A4 | G4 B8- | B4 A4 G4 | A12 | %267
 F8 A4 | B4 c8 | B12 | e8 d4 | c4 B4 A4 | G12 | c12 | B12 | B4 e4 d4 | A4 c8 | B12- | B4 G4 E4 | %279
 F8 A4 | (G2 A2"^rall." B2 c2 B4- | B4 A4 G2 A2 | G4 F8 | E12) ||[M:4/2] ^G16 | A8 !fermata!^G8 | %286
 A16- | A4 ^G4 !fermata!A8 | ^A8 B6 =A2 | G4 A4 B8 | c8 B4 A4 | G4 F4 E8- | E4 ^D2 ^C2 D8 | %293
 !fermata!E16 ||[M:3/2] ^G12 | A12 | B8 d4 | e4 d4 c4- | c4 B2 A2 B4 | A8 c4 | B8 A4 | G8 A4 | %302
 F4 G4 F4 | E8 F4 |"^rall." ^G4 F2 E2 ^D4 | E12- | E12 | F4 E4 D4 | ^C12 | D12 |"^rall." F8 G2 A2 | %311
 B4 G4 E4 | G8 F4 | E4 D4 C4 | B,12 | B,8 A,4 | z12 | z12 | z12 | z12 | F4 B4 A4 | G4 F2 E2 F4 | %322
 ^G12 | A12 | F8"^rall. molto" B2 A2 | G2 A2 B8 | ^G12 |][M:4/2] ([G,E]4 [A,F]4 [B,G]4 [^CB-]4 | %328
 B4) A2 G2 F4 G4 | A8 E4 ^D4 | E12 D2 C2 | B,16 | x8 E6 F2 | G8 A8 | B12 c4 | d4 c2 B2 A8 | %336
 B12 A4 | G6 A2 B8 | c12 B4 | f4 g8 f2 e2 | d6 ^c2 B4 A4 |"^rall." G4 B4 c8 | B2 A2 G4 F8 | E16 || %344
 F16 | ^G16 | E4 e4 ^d4 ^c4 | B12 A2 G2 | F16 | E16 |] A16 | G8 F8- | F4 ^c4 d4 B4- | B4 ^A4 B8- | %354
 B8 A8 | G12 F2 G2 | A4 E8"^rall." ^D4 | E16 |]!p! z8 B8 | c8 B6 A2 | G4 F2 E2 F4 B4 | E12 D4 | %362
 C8 B,8- | B,4 A,4 G,6 A,2 | B,8 E4 D2 C2 | B,4 D4 C8 | B,4 A,4 G,4 F,E, F,2 | z16 | %368
[K:treble][K:treble] E4 B4 c8 | B4 G4 e8 | B4 c4 d8- | d16- | d4 B4 A8 | G12 F4 | G8- G6 F2 | %375
 E16- | E16 | F4 ^G4 A8- | A4 ^G8 A4 | [D^GB]8 [^C-E-A]8 |"^a tempo" [CEG]16 | [DF]8 [^CE]8 | %382
 D8 E6 F2 | G12 F2 E2 | ^D4 E4[K:bass] A,8- | A,4 G,4 F,8 | E,12 F,4 | ^G,8 A,8- | %388
"^rall. molto" A,8[K:treble] [^CA]8- | [CA]16- | A6 G2 F4 E4 | A4 D8 C4 | D16 | B,4 E8 ^D4 | E16- | %395
 E8- E6 ^D2 | x8 E8 | A12 ^G4 |"^lento" F8 E8- |"^lentissimo" E2 ^D^C D4 !fermata!E8 |] %400
V:4
"^Ped." E,16- | E,12 F,4 | G,4 E,4 G,4 A,4 | B,16 | C4 B,4 A,6 G,2 | F,16- | F,4 E,2 D,2 C,8 | %7
 !fermata!B,,16 ||[M:3/2] [B,,-F,]12 | [B,,F,]12 | [E,,B,,]8 E,4 | B,,4 C,4 D,4 | G,,12 | D,,12 | %14
 E,,8 E,4 | B,,4 D,8 | E,12 | B,,12 | A,,12 | A,,12 | !fermata!D,,12 || z8 A,4- | A,4 B,4 F,4 | %23
 G,8 x4 | G,4 E,4 G,4 | B,12 | A,4 [G,B,]4 [F,A,]4 | E,12 | A,,12 | B,,12 | E,12 | %31
 [A,C]4 [G,B,]4 [F,A,]4 | G,4 B,4 [B,D]4- | [B,D]4"^rall. molto" [A,-C]8 | A,4 G,4 F,2 E,2 | %35
 [F,B,-]12 | [E,B,]12 |][M:4/2] B,8 A,4 B,4 | C8 B,8 | ^C16 | ^C4 B,8 ^A,4 | F,16 | E,16 | A,,16 | %44
 E,8 A,,8- | A,,8 B,,8 | F,,8 B,,8- | B,,8 E,4 D,4 | D4 E4 D8 | C4 B,4 A,8 | G,16 | %51
 A,4 G,2 F,2 E,4 D,4 | E,4 D,4- D,8 | D,12 C,4 | B,,8 C,8 | D,8 G,,8 | A,16 | B,4 G,4 A,8 | G,16 | %59
 G,4 D8 ^C4 | B,8 G,8 | [C,E,]8 D,8 | G,,16 | E,8 A,,8 | x8 G,4 A,4 | B,4 C4 D8 | A,,16- | A,,16 | %68
 E,16 | A,4 G,4 F,8 | G,8 A,8- | A,8 B,8 | E,12 B,2 A,2 | [E,G,]4 x12 | B,,4 A,,4 ^G,,4 A,,4 | %75
 B,,8 E,,8 | A,,12 G,,4 | =F,,16 | !fermata!E,,16 || A,,16 | z8 z4 B,4- | B,4 A,8 G,4 | F,8 G,8 | %83
 G,16 | B,8 A,8 | F,16 | F,8 ^G,8- | G,8 A,8 | A,8 G,8- | G,4 F,4 E,8 | D,12 G,4- | G,4 F,4 G,8- | %92
 G,4 B,4 A,4 G,4 | F,8 E,8 | E,12 D,4 | A,6 G,2 F,8 | G,16 | E,16 | D,6 C,2 B,,4 A,,4 | G,8 E,8 | %100
 A,8 G,8- | G,16- | G,16 | G,8 F,8 | A,12 G,4 | [B,,F,B,]16 | !fermata![B,,F,B,]16 || z8 B,8 | %108
 E,12 A,4 | G,2 F,2 E,4 D,4 A,4 | A,12 D,4 | E,8 F,8 | B,,16- | B,,16 | C,8 G,,8 | E,16- | E,16 | %117
 !fermata!^D,16 ||[M:3/2] [E,,E,]12 | E,8 C,4 | D,12 | A,8 ^G,4 | A,12- | A,8 G,4 | F,12 | F,,12 | %126
 B,,4 ^C,4 D,4 | E,12 | E,,12- | E,,12 | B,,12 | E,12- | E,12 | B,,12 | A,,12 | A,8 E,4 | %136
 !fermata!E,12 |][M:4/2] [E,,E,-]8 [E,^G,]4 [F,^C]4 | B,4 E8 ^D4 | E8- E2 D2 C4 | x8 B,4 A,4- | %141
 A,4 G,4 F,4 E,4 | F,8- [F,B,-]8 | B,4 A,2 G,2 A,8 | G,16 |] B,8 C4 B,4 | E4 D4 C8 | B,8 ^C8- | %148
 C8 x8 | F,8 B,,8 | B,8 D8 | D4 C6 B,2 A,4 | B,8 C8 | A,4 B,8 G,4 | F,4 G,12- | G,12 F,4 | %156
 E,12 A,4 | G,16- | G,8 A,8 | G,16 | A,8 C8- | C4 B,4 A,8 | ^G,8 A,8 | E4 D12 | B,4 ^C4 x8 | %165
 x8 B,4 A,4 | G,8 A,4 B,4 | C12 A,4 | F,8 E,8- | E,8 D,4 E,4 | ^C,8 D,8 | B,4 A,2 G,2 F,4 G,4 | %172
 E,4 G,4 A,4 G,4- | G,4 F,4 G,8 | F,16 | [E,^G,]8 A,8 | B,4 A,4 G,4 F,2 E,2 | A,6 G,2 [B,,-F,]8 | %178
 [B,,^G,]8 [E,B,]8 | ^G,16 | A,4 B,8 A,4 | B,6 A,2 G,8 | A,4 B,8 ^A,4 | B,,8 A,,8 | G,,16 | %185
 D,4 A,6 G,2 =F,4 | E,8 A,,8 | D,8 G,,8 | G,4 F,4 E,8 | A,4 A,,4 B,,4 C,4 | D,8 G,,8 | B,16- | %192
 B,4 D4 A,8 | B,12 A,4- | A,4 C4 B,8- | B,4 A,2 G,2 F,8 | G,8 E,8 | D,8 G,8 | F,8 E,8 | D,8 B,8 | %200
 A,8 G,8 | F,8 B,8- | B,4 A,2 G,2 A,8 | !fermata!G,16 || [F,B,]16- | [F,B,]16- | [F,B,]8 [G,B,]8 | %207
 [A,C]12 [G,B,]4 | G,4 A,4- A,2 G,2 F,2 E,2 | F,8 E,8 | A,,16 | D,,6 E,,2 F,,8 | B,,16- | B,,16- | %214
 x4 G,4 F,8 | F,16 | !fermata!E,16 || z8 G,8 | D,4 G,6 A,2 D,4 | B,,4 A,,8 E,4 | C8 B,8- | %221
 B,2 C2 A,4 B,4 G,4- | G,4 G,8 A,2 G,2 | F,6 E,2 D,8 | B,,12 C,4 | x12 A,2 G,2 | %226
 F,8 !fermata!E,8 || ([A,,E,-A,-]16 | [E,A,]4) A,4 B,4 A,4 | G,4- G,2 F,2 E,8 | F,4 B,8 D4- | %231
 D4 E8 D4- | D4 C2 B,2 C8 | B,8 x8 | E,4 A,,4 D,8 | G,4 B,,4 C,8 | D,2 C,2 B,,4 A,,8- | A,,16 | %238
 E,,16 | E,8 B,,4 E,4 | D,4 G,4 D,4 B,,4 | x12 [B,D]4 | [A,C]4 [F,A,]4 B,4 C4 | F,4 D,4 E,8- | %244
 E,4 F,4 G,2 A,2 B,2 C2 | x16 | z8 z4 E,4- | E,4 ^D,4 E,8 | E,8 D,8 | G,8 B,,8 | C,8 G,8 | D,16- || %252
[M:3/2] D,12 | G,8 E,4 | D,8 G,4 | A,12 | G,12 | E,12 | A,4 A,,4 B,,4 | D,12 | G,,12- | G,,12 | %262
 A,4 E,2 F,2 ^G,4 | A,4 G,4 D,4 | G,12- | G,4 F,4 E,4 | F,12 | A,8 F,4 | G,8 F,4 | G,4 B,4 A,4 | %270
 G,4 A,4 B,4 | C4 D4 C4 | B,12- | B,4 A,4 G,4 | F,8 A,4 | G,4 B,8 | A,8 G,4 | F,12 | G,12 | %279
 A,8 C4 | (B,6 A,2 G,2 F,2) | G,4 A,4 B,4 | C4 A,8 | G,12 ||[M:4/2] E,16- | E,16 | E,8 F,8 | E,16 | %288
 F,16 | G,4 E,4 F,8 | A,12 E,4- | E,12 B,,4- | B,,16 | !fermata!B,,16 ||[M:3/2] B,12 | C12 | %296
 D8 B,4 | C4 A,8- | A,4 ^G,2 F,2 G,4 | A,12 | G,8 A,4 | B,8 C4 | A,4 B,4 A,4 | G,4 F,4 E,4 | %304
 E,4 F,2 ^G,2 F,4 | ^G,12 | A,12 | A,4 G,4 F,4 | [F,^A,]12 | [F,B,]12 | B,8- B,2 A,2 | %311
 G,8- G,2 F,2 | E,4 D,8 | E,12 | z4 G,4 F,4 | E,4 D,4 C,4 | [E,G,]4 [^D,F,]2 [^C,E,]2 [D,F,]4 | %317
 [E,^G,]12 | [D,F,-A,-]12 | [F,A,]12 | B,4 D4 ^C4 | B,4 A,8 | B,12 | A,12 | %324
 B,2 ^C2 B,2 A,2 G,2 F,2 | E,8 ^D,4 | E,12 |][M:4/2] E,12 G,4- | G,4 A,2 B,2 A,4 B,4 | %329
 C4 B,4 A,4 F,4 | E,16 | G,4 F,4 E,4 A,4 | G,16- | G,4 F,4 E,4 ^D,2 E,2 | F,4 A,8 G,4 | %335
 A,4 G,4 E4 D2 C2 | B,8 ^C4 ^D4 | E12 D4 | C6 D2 E4 B,4 | ^C4 D2 C2 B,4 ^A,4 | B,4 F4 D6 ^C2 | %341
 B,12 A,2 G,2 | F,4 E,8 ^D,4 | E,16 || [^D,-F,]16 | [D,B,]16 | [E,^G,]4 G,8 A,4 | B,4 D4 C6 B,2 | %348
 A,16 | ^G,16 |] ^C16- | C12 B,4- | B,4 ^A,4 B,8 | ^C8 E8 | D12 C4 | B,16 | F,6 G,2 A,4 F,4 | %357
 E,16 |] z16 | z8 B,8 | C8 B,6 A,2 | G,4 F,2 E,2 F,4 B,4 | E,12 D,4 | C,8 B,,4 E,2 F,2 | G,12 F,4 | %365
 G,8 E,4 F,4 | G,4 F,4 E,4 ^D,4 | E,16 | G,8 A,8 | B,8 C8 | B,8 G,4 A,4 | G,8 F,8 | G,8 E,8 | %373
 B,4 A,2 G,2 A,8 | B,16 | C4 A,4 G,8 | F,8 G,8 | A,4 B,4 C8 | D8"^rall." C8 | E,,8 A,,8- | A,,16 | %381
 B,,8 F,,8 | B,,8 A,,8 | B,8 A,8- | A,4 G,8 F,2 E,2 | ^D,4 E,8 =D,4 | C,4 B,,4 A,,8 | %387
 B,,8 [^C,E,]8- | [C,E,]8 A,8 | A,16 | E,8 A,4 G,4 | F,12 E,4 | F,16 | [^G,,E,]4 [B,,^G,]4 F,8 | %394
 ^G,16- | G,8- G,6 F,2 | x16 | x8 ^D,4 E,4 | A,12 ^G,4 | F,8 !fermata![B,,^G,]8 |] %400
V:5
 E,,16- | E,,16- | E,,8 E,8- | E,8 B,,8 | A,,16 | B,,6 ^C,2 D,8 | G,,8 A,,8 | E,,16 ||[M:3/2] x12 | %9
 x12 | x12 | x12 | x12 | x12 | x12 | x12 | x12 | x12 | x12 | x12 | x12 || A,,12 | D,12 | E,8 F,4 | %24
 x12 | x12 | x12 | x12 | x12 | x12 | x12 | x12 | E,12 | A,,12 | [B,,-B,]12 | B,,12 | E,,12 |] %37
[M:4/2] E,16 | A,,4 C,4 E,8 | A,,16 | B,,8 E,,8 | B,,16 | x16 | x16 | x16 | x16 | x16 | x16 | %48
 G,12 G,,4 | A,,16 | E,,16 | D,,4 G,,4 A,,4 B,,4 | C,4 D,4 G,,8 | x16 | x16 | x16 | D,16 | %57
 G,4 E,4 D,8 | E,12 C,4 | G,4 F,4 E,8 | B,,8 C,4 G,,4 | x16 | x16 | x16 | B,,8 C,8 | %65
 B,,4 A,,4 G,,8 | x16 | x16 | x16 | B,,16 | E,8 A,,8- | A,,8 E,,8 | A,,12 [B,,^D,]4 | %73
 E,,4 E,4 D,4 C,4 | x16 | x16 | x16 | x16 | x16 || x16 | B,,16 | C,16 | D,8 G,,8 | E,16 | %84
 B,,8 D,4 A,,4 | B,,8 F,,8 | B,,8 E,8- | E,8 A,,8 | D,8 E,8 | A,,16 | D,6 C,2 B,,8 | A,,8 G,,8 | %92
 A,,16 | B,,8 C,8 | G,,6 A,,2 B,,8 | A,,8 B,,8 | E,,16 | A,,16 | x16 | G,,8 C,8 | D,8 G,,8 | %101
 E,,16- | E,,16 | E,,8 B,,8 | A,,8 [E,B,]8 | x16 | x16 || x16 | x16 | x16 | x16 | x16 | x16 | x16 | %114
 x16 | A,,16- | A,,8 E,,8 | B,,16 ||[M:3/2] x12 | x12 | x12 | x12 | x12 | x12 | x12 | x12 | x12 | %127
 x12 | x12 | x12 | x12 | x12 | x12 | x12 | x12 | A,,12 | E,,12 |][M:4/2] x16 | ^G,4 A,4 B,8 | %139
 E,8 A,8 | D,8 G,4 D,4 | E,8 A,,8 | [B,,D,]8 B,,8 | [C,E,]16 | E,,16 |] E,8 A,4 G,4 | C4 G,4 A,8 | %147
 E,8 A,8 | A,,8 D,4 E,4 | x16 | B,,4 E,4 D,8 | G,4 A,6 G,2 =F,4 | E,8 A,,8- | A,,4 G,,4 B,,4 C,4 | %154
 D,4 C,12 | G,,2 A,,2 B,,2 C,2 D,8 | A,,16 | E,16- | E,8 D,8 | G,,8 E,8 | D,8 C,6 B,,2 | A,,16 | %162
 E,8 A,,8 | A,4 B,8 A,4 | G,4 F,4 B,,8 | B,,16 | C,8 B,,8 | A,,16 | B,,8 E,,8 | A,,8 B,,4 E,,4 | %170
 F,,8 B,,4 G,,4 | [C,E,]8 D,4 B,,4 | C,16 | D,8 G,,8 | D,4 [C,E,]4 [B,,^D,]8 | E,,8 [A,,C,]8 | %176
 G,,4 D,,4 E,,4 G,,4 | A,,8 x8 | E,,16 | E,16 | D,4 B,,4 E,4 F,4 | G,6 F,2 E,8 | D,4 B,,4 F,,8 | %183
 x16 | x16 | x16 | x16 | x16 | x16 | x16 | x16 | G,,16- | G,,4 B,,4 C,4 D,4 | G,,12 D,4- | %194
 D,4 A,,4 E,4 D,4 | C,6 B,,2 A,,4 B,,4 | E,,8 A,,8 | B,,8 G,,8 | D,,8 A,,8 | B,,8 G,,8 | D,8 E,8 | %201
 B,,16 | A,,16 | E,,16 || B,,16- | B,,16- | B,,8 E,,8 | A,,8 E,,8 | E,4 D,4 C,8 | B,,8 E,,8 | x16 | %211
 x16 | x16 | x16 | B,,16 | B,,16 | E,,16 || x16 | x16 | x16 | A,8 E,8- | E,2 A,,2 D,4 B,,4 C,4- | %222
 C,4 E,8 D,4- | D,6 ^C,2 B,,8 | x16 | G,,8 A,,8 | B,,8 E,,8 || x16 | A,,8 G,,4 D,,4 | E,,8 F,,8 | %230
 B,,8 E,4 D,4 | G,4 C,8 G,4 | A,16 | E,16 | x16 | x16 | x16 | x16 | x16 | x16 | x16 | %241
 C,4 D,4 G,4 B,,4 | C,4 D,4 G,,4 E,,4 | D,,8 G,,8 | A,,8 E,,8- | E,,8 B,,8 | z4 G,,4 A,,6 G,,2 | %247
 F,,8 E,,8 | x16 | x16 | x16 | x16 ||[M:3/2] x12 | x12 | x12 | x12 | x12 | x12 | x12 | x12 | x12 | %261
 x12 | D,4 C,4 B,,4 | A,,4 D,8 | E,12 | D,12- | D,12- | D,12 | G,,4 A,,8 | G,,4 G,4 F,4 | %270
 E,4 F,4 G,4 | A,4 D,8 | E,12 | A,,12 | B,,12 | E,8 B,,4 | D,4 A,,8 | B,,12 | E,12 | D,8 A,,4 | %280
 E,12 | E,12 | A,,8 B,,4 | E,,12 ||[M:4/2] E,,16 | A,,8 !fermata!E,,8 | A,,8 D,8 | %287
 E,8 !fermata!A,,8 | F,,8 B,,8 | E,4 C,4 B,,8 | A,,16 | E,,16 | x16 | E,,16 ||[M:3/2] E,,12 | %295
 A,,12 | G,,4 G,8 | C,4 D,4 A,,4 | E,12 | A,,12 | E,12- | E,4 D,4 C,4 | D,4 G,,4 B,,4 | C,12 | %304
 B,,12 | E,,12 | A,,12 | D,4 E,4 B,,4 | F,,12 | B,,12 | B,,12- | B,,8 C,4 | C,4 G,,8- | G,,4 A,,8 | %314
 B,,8 A,,4 | G,,8 A,,4 | B,,12 | [E,,B,,]12 | D,,12 | D,8 ^C,4 | B,,12 | E,4 F,8 | E,12 | F,12 | %324
 B,,12- | B,,12 | E,,12 |][M:4/2] E,,8 E,8 | D,16 | A,,12 B,,4 | C,12 A,,4 | %331
 E,4 B,,2 A,,2 G,,4 F,,4 | E,,8 E,8- | E,4 D,4 C,8 | B,,8 E,8 | D,4 E,4 C,4 D,4 | G,,8 A,,4 B,,4 | %337
 C,12 B,,4 | A,,8 A,4 G,4 | F,16 | B,,16 | E,,8 A,,8 | B,,16 | E,,16 || B,,16- | B,,16 | %346
 C,8 B,,4 A,,4 | ^G,,8 A,,6 B,,2 | ^C,8 B,,8 | E,,16 |] A,16 | A,,8 D,6 E,2 | F,8 B,,4 G,4 | %353
 F,8 E,8 | G,8 D,8 | E,8 B,,8 | A,,12 B,,4 | E,,16 |] x16 | x16 | E,8 D,8- | D,4 C,4 B,,8- | %362
 B,,4 A,,4 G,,8 | A,,8 E,,8- | E,,4 E,4 C,4 D,4 | G,,8 A,,8 | B,,16 | E,,16 | E,16- | E,8 C,8 | %370
 D,12 C,4 | B,,8 A,,8 | G,,8 C,8 | D,16 | G,,16 | A,,8 E,,8- | E,,16 | B,,8 A,,8 | B,,8 A,,8 | %379
 x16 | x16 | x16 | x16 | E,,8 A,,8 | B,,16- | B,,16 | E,,16 | E,,8 A,,8- | A,,16- | A,,16 | %390
 A,,8 [D,,-D,]8 | [D,,A,,]8 A,,8- | [D,,A,,]16 | E,,8 B,,8 | [E,,B,,]16- | [E,,B,,]16 | %396
 [A,,^C,]16- | [A,,C,]8 B,,8- | B,,16- | B,,8 E,,8 |] %400
V:6
 x16 | x8 B,8- | B,8 E8 | G4 F2 E2- E4 D4 | E4 D4 C8 | B,12 A,4 | D4 B,8 A,4 | G,16 ||[M:3/2] x12 | %9
 x12 | x12 | x12 | x12 | x12 | x12 | D8 C4 | B,12- | B,12 | x12 | C4 B,4 A,4 | B,12 || ^C4 E4 G4 | %22
 F4 D4 F4 | E4 D4 ^C4 | B,4 E8- | E4 D8 | x12 | x12 | ^C12 | x12 | x12 | x12 | x12 | x12 | x12 | %35
 x12 | x12 |][M:4/2] E16 | E16 | E16 | x16 | x16 | x16 | x16 | x16 | ^C12 B,4- | B,4 ^A,4 B,8- | %47
 B,12 =D4 | G12 F4 | E4 D4 C8 | B,8 ^C8 | D8 C4 B,4 | A,8 B,8 | A,12 E4 | D8- D2 C2 B,4 | A,8 B,8 | %56
 D16- | D4 ^C4 D8 | B,8 C4 E4 | D8 G8- | G4 F4 E4 D4 | C4 B,4 A,8 | B,16- | B,4 D4 C8- | %64
 C4 B,2 A,2 E8- | E6 F2 G4 F4 | x16 | x16 | x16 | x4 B,12 | B,8 ^C8 | C4 x12 | x16 | x4 G4 F4 E4 | %74
 D12 C4 | B,2 ^C2 ^D4 E4 =D4 | C4 D4 E8- | E4 D4 C4 B,2 A,2 | B,16 || ^C16 | D16 | E16 | C8 B,8- | %83
 B,12 ^C4 | D12 ^C4- | C4 B,4 ^A,8 | B,8 B,8- | B,8 ^C8 | D8 B,8 | C8 ^C8 | D16- | D16 | %92
 C4 G4 F4 E4 | ^D8 E8 | B,16 | C8 B,8 | B,16 | A,16 | A,8 D8- | D8- D2 C2 B,4 | A,8 B,8- | B,16- | %102
 B,16 | B,16 | C16 | x16 | x16 || x16 | E8 B,4 ^C4 | D4 E4 F4 E4 | ^C8 E4 F4 | E6 D2 [^CF]8 | x16 | %113
 x16 | E16 | C6 D2 E2 D2 C2 B,2 | C8 B,8- | B,16 ||[M:3/2] B,4 E4 F4 | ^G8 A4 | F12 | %121
 [CE]4 [D=F]8 | [CE-]12 | E4 D4 E4- | E4 D4 B,4 | ^C12 | D4 E4 F4 | G4 F4 E4 | G4 E4 D4 | C4 B,8- | %130
 B,12- | B,8 E4- | E2 F2 G4 E4 | D12 | C4- C6 D2 | E4 D4 C4 | B,12 |][M:4/2] x16 | x16 | %139
 ^G8 A4 E4 | D16 | B,8 A,8 | x16 | C16 | B,16 |] E12 =G4- | G8 E8 | E8 E8 | E8 D4 ^C2 B,2- | %149
 B,4 ^A,4 B,6 ^C2 | D4 E4 F8 | G4 E8 D4 | E8 E8 | C4 D8 C4 | A,4 C2 D2 E8 | D16 | C4 E2 D2 C8 | %157
 B,12 E4- | E4 G8 F4 | G16 | F8 G8 | A8 E8- | E16 | A4 G4 F8 | D2 E2 F4 D8- | D16 | E8 F4 G4 | %167
 A4 G4 F4 E4 | E4 ^D4 E8 | ^C8 D4 B,4- | B,4 ^A,4 B,8 | x16 | x16 | x16 | x16 | x16 | x16 | x16 | %178
 x16 | E16 | F8 G4 F2 E2 | D8 E4 ^C4 | D8 ^C8 | B,8 C8 | B,4 C4 D4 G4 | F4 E8 C2 D2 | E6 D2 ^C8 | %187
 D4 C4 B,8 | D8 E8- | E4 D8 C2 B,2 | A,8 B,8 | x16 | x16 | x16 | x16 | x16 | x16 | x16 | x16 | %199
 x16 | D4 C4 B,8- | B,16 | x16 | x16 || x16 | x16 | x16 | x16 | x16 | x16 | ^C16- | C4 B,8 ^A,4 | %212
 x16 | x16 | x16 | x16 | x16 || z8 D8- | D4 [DG]6 [CE]2 [D-F]4 | [D^G]4 [EA]8 [EG]4 | E16- | %221
 E4 D8 C4- | C4 B,4 C4 D4- | D4 A,4 B,4 F,4 | B,12 G,4 | B,8 x8 | B,16 || x16 | x16 | x4 B,8 ^A,4 | %230
 x16 | G4 G8- G2 F2 | E16 | E8 ^G8- | G4 E4 F8 | G4 B6 A2 G4 | F4 ^G4 A4 E4- | E4 D4 C8 | B,16- | %239
 B,16 | D16 | E4 D8 x4 | x16 | x16 | x16 | B,4 ^C4 D8 | B,4 D4 C6 B,2 | A,8 x8 | [B,E]8 [D-F]8 | %249
 [DG]16 | E8 D8 | G8 F8 ||[M:3/2] x12 | x12 | F8 D4 | C4 E4 F4 | G8 D4 | G8 F4 | E8 D4 | G4 F8 | %260
 x4 D8- | D8 x4 | x12 | C12 | B,8 C4 | D12- | D12- | D12- | D4 C8 | D12 | G8 F4 | E4 F8 | E8 G4- | %273
 G4 F4 E4 | ^D8 F4 | E4 G4 F4- | F8 E4 | ^D12 | E4 B,4 ^C4 | D8 F4 | E12- | E12 | E8 ^D4 | B,12 || %284
[M:4/2] B,16 | ^C8 B,8 | ^C8 D6 C2 | B,8 ^C8 | ^C8 D6 C2 | B,4 E8 ^D4 | E8- E2 D2 C4 | %291
 B,4 A,4 G,8 | F,16 | ^G,16 ||[M:3/2] E12 | E8 F4 | G12 | G4 =F4 E4 | E8 D4 | C8 E4- | E12 | E12 | %302
 D12 | C8 A,4 | B,12 | B,12 | ^C12 | D4 ^C4 B,4 | x12 | x12 | D12 | D8 C4 | C4 B,8- | B,4 A,8 | %314
 x12 | x12 | x12 | x12 | x12 | x12 | x4 F8 | E4 ^D8 | E12 | ^C12 | D12 | E4 F8 | B,12 |] %327
[M:4/2] x16 | D16 | E4 D4 C4 B,4 | B,6 A,2 G,4 A,4 | x16 | B,16- | B,8 A,4 F2 E2 | ^D4 F8 E4 | %335
 F4 G8 F4- | F4 E2 F2 G4 F4 | E6 F2 ^G8 | A12 E4 | ^A4 B4 e4 d2 ^c2 | B6 A2 G4 F4 | E4 G8 F2 E2 | %342
 ^D4 E4 A,8 | G,16 || x16 | x16 | x4 E12- | E16- | E8 ^D2 ^C2 D4 | B,16 |] E16 | E8 D8 | %352
 ^C8 F4 D4 | F8 G8- | G8 F8 | E12 D4 | D4 C8 B,4 | G,16 |] x16 | x16 | x16 | x16 | x16 | x16 | %364
 x16 | x16 | x16 | x16 |[K:treble][K:treble] E12 F4 | G4 E4 G4 A4 | G12 F4 | G4 D8 C4 | B,4 D4 E8 | %373
 D16 | D8 E4 D4 | C8 B,8 | A,8 B,8 | D4 D4 E8 | E8- E6 F2 | x16 | x16 | C4 B,8 A,4 | B,8 C8 | x16 | %384
 x8[K:bass] x8 | x16 | x16 | x16 | x8[K:treble] x8 | x16 | ^C8 x8 | x16 | x16 | x16 | x16 | x16 | %396
 ^C16- | C12 B,4 | x16 | x16 |] %400
V:7
 x16 | x16 | x16 | x16 | x16 | x16 | x16 | x16 ||[M:3/2] x12 | x12 | x12 | x12 | x12 | x12 | x12 | %15
 x12 | x12 | x4 D8 | x12 | x12 | x12 || x12 | x12 | x12 | x12 | x12 | x12 | x12 | x12 | x12 | x12 | %31
 x12 | x12 | x12 | x12 | x12 | x12 |][M:4/2] x16 | x16 | x16 | x16 | x16 | x16 | x16 | x16 | x16 | %46
 x16 | x16 | x16 | x16 | x16 | x16 | x16 | x16 | x16 | x16 | x16 | x16 | x16 | x16 | x16 | x16 | %62
 x16 | x16 | x16 | x16 | x16 | x16 | x16 | x16 | x16 | x16 | x16 | x16 | x16 | x16 | x16 | x16 | %78
 x16 || x16 | x16 | x16 | x16 | x16 | x16 | x16 | x16 | x16 | x16 | x16 | x16 | x16 | x16 | x16 | %94
 x16 | x16 | x16 | x16 | x16 | x16 | x16 | x16 | x16 | x16 | x16 | x16 | x16 || x16 | x16 | x16 | %110
 A16 | G8 x8 | x16 | x16 | x16 | x16 | x16 | x16 ||[M:3/2] x12 | x12 | x12 | x12 | x12 | x12 | %124
 x12 | x12 | x12 | x12 | x12 | x12 | x12 | x12 | x12 | x12 | x12 | x12 | x12 |][M:4/2] x16 | x16 | %139
 x16 | x16 | x16 | x16 | x16 | x16 |] x16 | x16 | x16 | x16 | x16 | x16 | x16 | x16 | x16 | x16 | %155
 x16 | x16 | x16 | x16 | x16 | x16 | x16 | x16 | x16 | x16 | x16 | x16 | x16 | x16 | x16 | x16 | %171
 x16 | x16 | x16 | x16 | x16 | x16 | x16 | x16 | x16 | x16 | x16 | x16 | x16 | x16 | x16 | x16 | %187
 x16 | x16 | x16 | x16 | x16 | x16 | x16 | x16 | x16 | x16 | x16 | x16 | x16 | x16 | x16 | x16 | %203
 x16 || x16 | x16 | x16 | x16 | x16 | x16 | x16 | x16 | x16 | x16 | x16 | x16 | x16 || x16 | x16 | %219
 x16 | x16 | x16 | x16 | x16 | x16 | x16 | x16 || x16 | x16 | x16 | x16 | x16 | x16 | x16 | x16 | %235
 x16 | x16 | x16 | x16 | x16 | x16 | x16 | x16 | x16 | x16 | x16 | x16 | x16 | x16 | x16 | x16 | %251
 x16 ||[M:3/2] x12 | x12 | x12 | x12 | x12 | x12 | x12 | x12 | x12 | x12 | x12 | x12 | x12 | x12 | %266
 x12 | x12 | x12 | x12 | x12 | x12 | x12 | x12 | x12 | x12 | x12 | x12 | x12 | x12 | x12 | x12 | %282
 x12 | x12 ||[M:4/2] x16 | x16 | x16 | x16 | x16 | x16 | x16 | x16 | x16 | x16 ||[M:3/2] x12 | %295
 x12 | x12 | x12 | x12 | x12 | x12 | x12 | x12 | x12 | x12 | x12 | x12 | x12 | x12 | x12 | x12 | %311
 x12 | x12 | x12 | x12 | x12 | x12 | x12 | x12 | x12 | x12 | x12 | x12 | x12 | x12 | x12 | x12 |] %327
[M:4/2] x16 | x16 | x16 | x16 | x16 | x16 | x16 | x16 | x16 | x16 | x16 | x16 | x16 | x16 | x16 | %342
 x16 | x16 || x16 | x16 | x16 | x16 | x16 | x16 |] x16 | x16 | x16 | x16 | x16 | x16 | x16 | x16 |] %358
 x16 | x16 | x16 | x16 | x16 | x16 | x16 | x16 | x16 | x16 |[K:treble][K:treble] x16 | x16 | x16 | %371
 x16 | x16 | x16 | x16 | x16 | x16 | x16 | x16 | x16 | x16 | x16 | x16 | x16 | x8[K:bass] x8 | %385
 x16 | x16 | x16 | x8[K:treble] x8 | x16 | x16 | x16 | x16 | x16 | x16 | x16 | x16 | x16 | x16 | %399
 x16 |] %400
V:8
 x16 | x16 | x16 | x16 | x16 | x16 | x16 | x16 ||[M:3/2] x12 | x12 | x12 | x12 | x12 | x12 | x12 | %15
 x12 | x12 | x12 | x12 | x12 | x12 || x12 | x12 | x12 | x12 | x12 | x12 | x12 | x12 | x12 | x12 | %31
 x12 | x12 | x12 | x12 | x12 | x12 |][M:4/2] x16 | x16 | x16 | x16 | x16 | x16 | x16 | x16 | x16 | %46
 x16 | x16 | x16 | x16 | x16 | x16 | x16 | x16 | x16 | x16 | x16 | x16 | x16 | x16 | x16 | x16 | %62
 x16 | x16 | x16 | x16 | x16 | x16 | x16 | x16 | x16 | x16 | x16 | x16 | x16 | x16 | x16 | x16 | %78
 x16 || x16 | x16 | x16 | x16 | x16 | x16 | x16 | x16 | x16 | x16 | x16 | x16 | x16 | x16 | x16 | %94
 x16 | x16 | x16 | x16 | x16 | x16 | x16 | x16 | x16 | x16 | x16 | x16 | x16 || x16 | x16 | x16 | %110
 x16 | x16 | x16 | x16 | x16 | x16 | x16 | x16 ||[M:3/2] x12 | x12 | x12 | x12 | x12 | x12 | x12 | %125
 x12 | x12 | x12 | x12 | x12 | x12 | x12 | x12 | x12 | x12 | x12 | x12 |][M:4/2] x16 | x16 | x16 | %140
 x16 | x16 | x16 | x8 A,,4 E,,4 | x16 |] x16 | x16 | x16 | x16 | x16 | x16 | x16 | x16 | x16 | %154
 x16 | x16 | x16 | x16 | x16 | x16 | x16 | x16 | x16 | x16 | x16 | x16 | x16 | x16 | x16 | x16 | %170
 x16 | x16 | x16 | x16 | x16 | x16 | D,8 B,,8 | E,4 C,4 x8 | x16 | x16 | x16 | x16 | x16 | x16 | %184
 x16 | x16 | x16 | x16 | x16 | x16 | x16 | x16 | x16 | x16 | x16 | x16 | x16 | x16 | x16 | x16 | %200
 x16 | x16 | x16 | x16 || x16 | x16 | x16 | x16 | x16 | x16 | x16 | x16 | x16 | x16 | x16 | x16 | %216
 x16 || x16 | x16 | x16 | x16 | x16 | x16 | x16 | x16 | x16 | x16 || x16 | x16 | x16 | x16 | x16 | %232
 x16 | x16 | x16 | x16 | x16 | x16 | x16 | x16 | x16 | x16 | x8 G,8 | x16 | x16 | x16 | x16 | x16 | %248
 x16 | x16 | x16 | x16 ||[M:3/2] x12 | x12 | x12 | x12 | x12 | x12 | x12 | x12 | x12 | x12 | x12 | %263
 x12 | x12 | x12 | x12 | x12 | x12 | x12 | x12 | x12 | x12 | x12 | x12 | x12 | x12 | x12 | x12 | %279
 x12 | x12 | x12 | x12 | x12 ||[M:4/2] x16 | x16 | x16 | x16 | x16 | x16 | x16 | x16 | x16 | x16 || %294
[M:3/2] x12 | x12 | x12 | x12 | x12 | x12 | x12 | x12 | x12 | x12 | x12 | x12 | x12 | x12 | x12 | %309
 x12 | x12 | x12 | x12 | x12 | ^D,12 | E,12 | x12 | x12 | x12 | x12 | x12 | x12 | x12 | x12 | x12 | %325
 x12 | x12 |][M:4/2] x16 | x16 | x16 | x16 | E,,16 | x16 | x16 | x16 | x16 | x16 | x16 | x16 | %339
 x16 | x16 | x16 | x16 | x16 || x16 | x16 | x16 | x16 | x16 | x16 |] x16 | x16 | x16 | x16 | x16 | %355
 x16 | x16 | x16 |] x16 | x16 | x16 | x16 | x16 | x16 | x16 | x16 | x16 | x16 | x16 | x16 | x16 | %371
 x16 | x16 | x16 | x16 | x16 | x16 | x16 | x16 | x16 | x16 | x16 | x16 | x16 | x16 | x16 | x16 | %387
 x16 | x16 | x16 | x16 | x16 | x16 | x16 | x16 | x16 | x16 | x16 | x16 | x16 |] %400

